ummisco.gama.ui.shared/svg/window/icon128.svg

<?xml version="1.0" encoding="UTF-8" standalone="no"?>
<!DOCTYPE svg PUBLIC "-//W3C//DTD SVG 1.1//EN" "http://www.w3.org/Graphics/SVG/1.1/DTD/svg11.dtd">
<svg xmlns:xl="http://www.w3.org/1999/xlink" version="1.1" xmlns="http://www.w3.org/2000/svg" xmlns:dc="http://purl.org/dc/elements/1.1/" viewBox="-774 -3094.5812 128 128" width="128" height="128">
  <defs/>
  <g id="ICONES" stroke="none" stroke-opacity="1" stroke-dasharray="none" fill="none" fill-opacity="1">
    <title>ICONES</title>
    <g id="ICONES_Calque_1">
      <title>Calque 1</title>
      <g id="Group_4297">
        <g id="Graphic_4306">
          <path d="M -729.2 -3094.5812 L -690.8 -3094.5812 C -678 -3094.5812 -671.6 -3094.5812 -663.92 -3092.0212 C -657.52 -3089.4612 -651.12 -3083.0612 -648.56 -3076.6612 C -646 -3068.9812 -646 -3062.5812 -646 -3049.7812 L -646 -3011.3812 C -646 -2998.5812 -646 -2992.1812 -648.56 -2984.5012 C -651.12 -2978.1012 -657.52 -2971.7012 -663.92 -2969.1412 C -671.6 -2966.5812 -678 -2966.5812 -690.8 -2966.5812 L -729.2 -2966.5812 C -742 -2966.5812 -748.4 -2966.5812 -756.08 -2969.1412 C -762.48 -2971.7012 -768.88 -2978.1012 -771.44 -2984.5012 C -774 -2992.1812 -774 -2998.5812 -774 -3011.3812 L -774 -3049.7812 C -774 -3062.5812 -774 -3068.9812 -771.44 -3076.6612 C -768.88 -3083.0612 -762.48 -3089.4612 -756.08 -3092.0212 C -748.4 -3094.5812 -742 -3094.5812 -729.2 -3094.5812 M -729.2 -3094.5812" fill="white"/>
        </g>
        <g id="Group_4298">
          <g id="Graphic_4305">
            <path d="M -671.6395 -3068.9417 C -692.8254 -3090.1277 -727.1746 -3090.1277 -748.3605 -3068.9417 C -769.5465 -3047.7558 -769.5465 -3013.4066 -748.3605 -2992.2207 C -727.1746 -2971.0347 -692.8254 -2971.0347 -671.6395 -2992.2207 C -650.4535 -3013.4066 -650.4535 -3047.7558 -671.6395 -3068.9417 M -676.75425 -3063.827 C -658.393 -3045.466 -658.393 -3015.6966 -676.75425 -2997.3354 C -695.1154 -2978.9742 -724.8846 -2978.9742 -743.24575 -2997.3354 C -761.607 -3015.6966 -761.607 -3045.466 -743.24575 -3063.827 C -724.8846 -3082.188 -695.1154 -3082.188 -676.75425 -3063.827" fill="#efb54f" fill-opacity=".25239327"/>
            <path d="M -671.6395 -3068.9417 C -692.8254 -3090.1277 -727.1746 -3090.1277 -748.3605 -3068.9417 C -769.5465 -3047.7558 -769.5465 -3013.4066 -748.3605 -2992.2207 C -727.1746 -2971.0347 -692.8254 -2971.0347 -671.6395 -2992.2207 C -650.4535 -3013.4066 -650.4535 -3047.7558 -671.6395 -3068.9417 M -676.75425 -3063.827 C -658.393 -3045.466 -658.393 -3015.6966 -676.75425 -2997.3354 C -695.1154 -2978.9742 -724.8846 -2978.9742 -743.24575 -2997.3354 C -761.607 -3015.6966 -761.607 -3045.466 -743.24575 -3063.827 C -724.8846 -3082.188 -695.1154 -3082.188 -676.75425 -3063.827" stroke="#efb64f" stroke-linecap="round" stroke-linejoin="round" stroke-width="0"/>
          </g>
          <g id="Graphic_4304">
            <path d="M -681.2296 -3059.3516 C -697.1191 -3075.241 -722.8809 -3075.241 -738.7704 -3059.3516 C -754.6599 -3043.462 -754.6599 -3017.7003 -738.7704 -3001.811 C -722.8809 -2985.9213 -697.1191 -2985.9213 -681.2296 -3001.811 C -665.3401 -3017.7003 -665.3401 -3043.462 -681.2296 -3059.3516 M -686.3444 -3054.237 C -673.27965 -3041.172 -673.27965 -3019.9902 -686.3444 -3006.9256 C -699.409 -2993.861 -720.591 -2993.861 -733.6556 -3006.9256 C -746.72035 -3019.9902 -746.72035 -3041.172 -733.6556 -3054.237 C -720.591 -3067.3015 -699.409 -3067.3015 -686.3444 -3054.237" fill="#d3673a" fill-opacity=".24884463"/>
            <path d="M -681.2296 -3059.3516 C -697.1191 -3075.241 -722.8809 -3075.241 -738.7704 -3059.3516 C -754.6599 -3043.462 -754.6599 -3017.7003 -738.7704 -3001.811 C -722.8809 -2985.9213 -697.1191 -2985.9213 -681.2296 -3001.811 C -665.3401 -3017.7003 -665.3401 -3043.462 -681.2296 -3059.3516 M -686.3444 -3054.237 C -673.27965 -3041.172 -673.27965 -3019.9902 -686.3444 -3006.9256 C -699.409 -2993.861 -720.591 -2993.861 -733.6556 -3006.9256 C -746.72035 -3019.9902 -746.72035 -3041.172 -733.6556 -3054.237 C -720.591 -3067.3015 -699.409 -3067.3015 -686.3444 -3054.237" stroke="#d2673a" stroke-linecap="round" stroke-linejoin="round" stroke-width="0"/>
          </g>
          <g id="Graphic_4303">
            <path d="M -690.8198 -3049.7614 C -701.4127 -3060.3545 -718.5873 -3060.3545 -729.1802 -3049.7614 C -739.77325 -3039.1685 -739.77325 -3021.994 -729.1802 -3011.401 C -718.5873 -3000.808 -701.4127 -3000.808 -690.8198 -3011.401 C -680.22675 -3021.994 -680.22675 -3039.1685 -690.8198 -3049.7614 M -695.9345 -3044.6467 C -688.1663 -3036.8785 -688.1663 -3024.284 -695.9345 -3016.5157 C -703.7027 -3008.7475 -716.2973 -3008.7475 -724.0655 -3016.5157 C -731.8337 -3024.284 -731.8337 -3036.8785 -724.0655 -3044.6467 C -716.2973 -3052.415 -703.7027 -3052.415 -695.9345 -3044.6467" fill="#3570a0" fill-opacity=".2496699"/>
            <path d="M -690.8198 -3049.7614 C -701.4127 -3060.3545 -718.5873 -3060.3545 -729.1802 -3049.7614 C -739.77325 -3039.1685 -739.77325 -3021.994 -729.1802 -3011.401 C -718.5873 -3000.808 -701.4127 -3000.808 -690.8198 -3011.401 C -680.22675 -3021.994 -680.22675 -3039.1685 -690.8198 -3049.7614 M -695.9345 -3044.6467 C -688.1663 -3036.8785 -688.1663 -3024.284 -695.9345 -3016.5157 C -703.7027 -3008.7475 -716.2973 -3008.7475 -724.0655 -3016.5157 C -731.8337 -3024.284 -731.8337 -3036.8785 -724.0655 -3044.6467 C -716.2973 -3052.415 -703.7027 -3052.415 -695.9345 -3044.6467" stroke="#3770a0" stroke-linecap="round" stroke-linejoin="round" stroke-width="0"/>
          </g>
          <g id="Graphic_4302">
            <path d="M -693.79534 -3067.9158 C -708.67975 -3074.397 -726.6495 -3071.5506 -738.8238 -3059.3762 C -754.7133 -3043.4868 -754.7133 -3017.725 -738.8238 -3001.8355 C -734.9147 -2997.9264 -730.40815 -2994.979 -725.598 -2992.9933 L -722.77085 -2999.6538 C -726.7497 -3001.2867 -730.4777 -3003.719 -733.7091 -3006.9502 C -746.7738 -3020.015 -746.7738 -3041.197 -733.7091 -3054.2615 C -723.6819 -3064.2887 -708.8731 -3066.62 -696.6225 -3061.2554 Z" fill="#d3673a"/>
            <path d="M -693.79534 -3067.9158 C -708.67975 -3074.397 -726.6495 -3071.5506 -738.8238 -3059.3762 C -754.7133 -3043.4868 -754.7133 -3017.725 -738.8238 -3001.8355 C -734.9147 -2997.9264 -730.40815 -2994.979 -725.598 -2992.9933 L -722.77085 -2999.6538 C -726.7497 -3001.2867 -730.4777 -3003.719 -733.7091 -3006.9502 C -746.7738 -3020.015 -746.7738 -3041.197 -733.7091 -3054.2615 C -723.6819 -3064.2887 -708.8731 -3066.62 -696.6225 -3061.2554 Z" stroke="#d2673a" stroke-linecap="round" stroke-linejoin="round" stroke-width="0"/>
          </g>
          <g id="Graphic_4301">
            <path d="M -691.19 -2999.5864 L -683.5055 -2999.5864 L -683.5055 -3024.5414 L -709.825 -3024.5414 L -709.825 -3017.2553 L -691.19 -3017.2553 Z" fill="#3770a1"/>
            <path d="M -691.19 -2999.5864 L -683.5055 -2999.5864 L -683.5055 -3024.5414 L -709.825 -3024.5414 L -709.825 -3017.2553 L -691.19 -3017.2553 Z" stroke="black" stroke-linecap="round" stroke-linejoin="round" stroke-width="0"/>
          </g>
          <g id="Graphic_4300">
            <path d="M -694.84756 -3017.6393 C -695.1518 -3017.2896 -695.47024 -3016.948 -695.803 -3016.6154 C -703.5711 -3008.847 -716.1658 -3008.847 -723.934 -3016.6154 C -731.7022 -3024.3835 -731.7022 -3036.9782 -723.934 -3044.7464 C -720.32595 -3048.3544 -715.6767 -3050.2867 -710.9535 -3050.543 L -710.9535 -3057.7843 C -717.5294 -3057.5227 -724.0282 -3054.8816 -729.0487 -3049.861 C -739.6417 -3039.268 -739.6417 -3022.0936 -729.0487 -3011.5006 C -718.45575 -3000.9076 -701.2812 -3000.9076 -690.6882 -3011.5006 C -688.8222 -3013.3666 -687.2849 -3015.437 -686.07635 -3017.6393 Z" fill="#3570a0"/>
            <path d="M -694.84756 -3017.6393 C -695.1518 -3017.2896 -695.47024 -3016.948 -695.803 -3016.6154 C -703.5711 -3008.847 -716.1658 -3008.847 -723.934 -3016.6154 C -731.7022 -3024.3835 -731.7022 -3036.9782 -723.934 -3044.7464 C -720.32595 -3048.3544 -715.6767 -3050.2867 -710.9535 -3050.543 L -710.9535 -3057.7843 C -717.5294 -3057.5227 -724.0282 -3054.8816 -729.0487 -3049.861 C -739.6417 -3039.268 -739.6417 -3022.0936 -729.0487 -3011.5006 C -718.45575 -3000.9076 -701.2812 -3000.9076 -690.6882 -3011.5006 C -688.8222 -3013.3666 -687.2849 -3015.437 -686.07635 -3017.6393 Z" stroke="#3770a0" stroke-linecap="round" stroke-linejoin="round" stroke-width="0"/>
          </g>
          <g id="Graphic_4299">
            <path d="M -664.9647 -3060.8465 C -666.88846 -3063.7023 -669.1134 -3066.4156 -671.6395 -3068.9417 C -692.8254 -3090.1277 -727.1746 -3090.1277 -748.3605 -3068.9417 C -765.1959 -3052.1064 -768.6531 -3026.959 -758.7321 -3006.71 L -752.4494 -3010.3372 C -760.7814 -3027.8087 -757.7135 -3049.3593 -743.24575 -3063.827 C -724.8846 -3082.188 -695.1154 -3082.188 -676.75425 -3063.827 C -674.6856 -3061.7583 -672.85 -3059.545 -671.24745 -3057.2192 Z" fill="#efb54f"/>
            <path d="M -664.9647 -3060.8465 C -666.88846 -3063.7023 -669.1134 -3066.4156 -671.6395 -3068.9417 C -692.8254 -3090.1277 -727.1746 -3090.1277 -748.3605 -3068.9417 C -765.1959 -3052.1064 -768.6531 -3026.959 -758.7321 -3006.71 L -752.4494 -3010.3372 C -760.7814 -3027.8087 -757.7135 -3049.3593 -743.24575 -3063.827 C -724.8846 -3082.188 -695.1154 -3082.188 -676.75425 -3063.827 C -674.6856 -3061.7583 -672.85 -3059.545 -671.24745 -3057.2192 Z" stroke="#efb64f" stroke-linecap="round" stroke-linejoin="round" stroke-width="0"/>
          </g>
        </g>
      </g>
    </g>
  </g>
</svg>

<svg xmlns="http://www.w3.org/2000/svg" width="128" height="128" viewBox="-774 -3094.581 128 128"><g fill="none"><path fill="#fff" d="M-729.2-3094.581h38.4c12.8 0 19.2 0 26.88 2.56 6.4 2.56 12.8 8.96 15.36 15.36 2.56 7.68 2.56 14.08 2.56 26.88v38.4c0 12.8 0 19.2-2.56 26.88-2.56 6.4-8.96 12.8-15.36 15.36-7.68 2.56-14.08 2.56-26.88 2.56h-38.4c-12.8 0-19.2 0-26.88-2.56-6.4-2.56-12.8-8.96-15.36-15.36-2.56-7.68-2.56-14.08-2.56-26.88v-38.4c0-12.8 0-19.2 2.56-26.88 2.56-6.4 8.96-12.8 15.36-15.36 7.68-2.56 14.08-2.56 26.88-2.56m0 0"/><path fill="#efb54f" fill-opacity=".252" d="M-671.64-3068.942c-21.185-21.186-55.535-21.186-76.72 0-21.187 21.186-21.187 55.535 0 76.721 21.185 21.186 55.535 21.186 76.72 0 21.187-21.186 21.187-55.535 0-76.72m-5.114 5.114c18.361 18.361 18.361 48.13 0 66.492-18.361 18.36-48.13 18.36-66.492 0-18.361-18.362-18.361-48.131 0-66.492 18.361-18.361 48.13-18.361 66.492 0"/><path d="M-671.64-3068.942c-21.185-21.186-55.535-21.186-76.72 0-21.187 21.186-21.187 55.535 0 76.721 21.185 21.186 55.535 21.186 76.72 0 21.187-21.186 21.187-55.535 0-76.72m-5.114 5.114c18.361 18.361 18.361 48.13 0 66.492-18.361 18.36-48.13 18.36-66.492 0-18.361-18.362-18.361-48.131 0-66.492 18.361-18.361 48.13-18.361 66.492 0"/><path fill="#d3673a" fill-opacity=".249" d="M-681.23-3059.352c-15.89-15.889-41.65-15.889-57.54 0-15.89 15.89-15.89 41.652 0 57.541 15.89 15.89 41.65 15.89 57.54 0s15.89-41.651 0-57.54m-5.114 5.114c13.064 13.065 13.064 34.247 0 47.311-13.065 13.065-34.247 13.065-47.312 0-13.064-13.064-13.064-34.246 0-47.311 13.065-13.064 34.247-13.064 47.312 0"/><path d="M-681.23-3059.352c-15.89-15.889-41.65-15.889-57.54 0-15.89 15.89-15.89 41.652 0 57.541 15.89 15.89 41.65 15.89 57.54 0s15.89-41.651 0-57.54m-5.114 5.114c13.064 13.065 13.064 34.247 0 47.311-13.065 13.065-34.247 13.065-47.312 0-13.064-13.064-13.064-34.246 0-47.311 13.065-13.064 34.247-13.064 47.312 0"/><path fill="#3570a0" fill-opacity=".25" d="M-690.82-3049.761c-10.593-10.593-27.767-10.593-38.36 0-10.593 10.592-10.593 27.767 0 38.36s27.767 10.593 38.36 0 10.593-27.768 0-38.36m-5.114 5.114c7.768 7.769 7.768 20.363 0 28.131-7.769 7.769-20.363 7.769-28.132 0-7.768-7.768-7.768-20.362 0-28.13 7.769-7.769 20.363-7.769 28.132 0"/><path d="M-690.82-3049.761c-10.593-10.593-27.767-10.593-38.36 0-10.593 10.592-10.593 27.767 0 38.36s27.767 10.593 38.36 0 10.593-27.768 0-38.36m-5.114 5.114c7.768 7.769 7.768 20.363 0 28.131-7.769 7.769-20.363 7.769-28.132 0-7.768-7.768-7.768-20.362 0-28.13 7.769-7.769 20.363-7.769 28.132 0"/><path fill="#d3673a" d="M-693.795-3067.916c-14.885-6.481-32.855-3.635-45.029 8.54-15.89 15.89-15.89 41.651 0 57.54a40.565 40.565 0 0 0 13.226 8.843l2.827-6.66a33.355 33.355 0 0 1-10.938-7.297c-13.065-13.065-13.065-34.247 0-47.312 10.027-10.027 24.836-12.358 37.087-6.993Z"/><path d="M-693.795-3067.916c-14.885-6.481-32.855-3.635-45.029 8.54-15.89 15.89-15.89 41.651 0 57.54a40.565 40.565 0 0 0 13.226 8.843l2.827-6.66a33.355 33.355 0 0 1-10.938-7.297c-13.065-13.065-13.065-34.247 0-47.312 10.027-10.027 24.836-12.358 37.087-6.993Z"/><path fill="#3770a1" d="M-691.19-2999.586h7.685v-24.955h-26.32v7.286h18.635Z"/><path d="M-691.19-2999.586h7.685v-24.955h-26.32v7.286h18.635Z"/><path fill="#3570a0" d="M-694.848-3017.64c-.304.35-.622.692-.955 1.025-7.768 7.768-20.363 7.768-28.131 0-7.768-7.769-7.768-20.363 0-28.131a19.817 19.817 0 0 1 12.98-5.797v-7.241a27.028 27.028 0 0 0-18.095 7.923c-10.593 10.593-10.593 27.767 0 38.36s27.768 10.593 38.36 0a27.139 27.139 0 0 0 4.613-6.138Z"/><path d="M-694.848-3017.64c-.304.35-.622.692-.955 1.025-7.768 7.768-20.363 7.768-28.131 0-7.768-7.769-7.768-20.363 0-28.131a19.817 19.817 0 0 1 12.98-5.797v-7.241a27.028 27.028 0 0 0-18.095 7.923c-10.593 10.593-10.593 27.767 0 38.36s27.768 10.593 38.36 0a27.139 27.139 0 0 0 4.613-6.138Z"/><path fill="#efb54f" d="M-664.965-3060.847a54.527 54.527 0 0 0-6.674-8.095c-21.186-21.186-55.536-21.186-76.721 0-16.836 16.836-20.293 41.983-10.372 62.232l6.283-3.627c-8.332-17.472-5.264-39.022 9.203-53.49 18.361-18.361 48.13-18.361 66.492 0a47.281 47.281 0 0 1 5.507 6.608Z"/><path d="M-664.965-3060.847a54.527 54.527 0 0 0-6.674-8.095c-21.186-21.186-55.536-21.186-76.721 0-16.836 16.836-20.293 41.983-10.372 62.232l6.283-3.627c-8.332-17.472-5.264-39.022 9.203-53.49 18.361-18.361 48.13-18.361 66.492 0a47.281 47.281 0 0 1 5.507 6.608Z"/></g></svg>
